packages/wallets/src/public/images/currencies/usd.svg

<svg viewBox="0 0 33 32" fill="none" xmlns="http://www.w3.org/2000/svg">
<rect x="0.5" width="32" height="32" rx="16" fill="white"/>
<path fill-rule="evenodd" clip-rule="evenodd" d="M15.8233 0C12.7418 0.177583 9.89631 1.22718 7.52649 2.90324H25.9905C23.6204 1.22718 20.7749 0.177583 17.6933 0H17.201H15.8233ZM4.39772 5.80575C3.66408 6.6973 3.02841 7.67097 2.5 8.70872L21.7395 8.70892H31.0169C30.4883 7.67125 29.8531 6.6975 29.1189 5.80595L22.0132 5.80575H4.39772ZM0.56604 14.5439C0.653399 13.547 0.833382 12.5773 1.0962 11.6414H31.882C32.1448 12.5771 32.3248 13.547 32.4124 14.5439H0.56604ZM0.572083 17.4476C0.664707 18.445 0.851306 19.4147 1.11939 20.3501H31.8591C32.1274 19.4147 32.3137 18.4448 32.4064 17.4476H0.572083ZM4.19638 26.1563C3.45363 25.2657 2.80891 24.292 2.2724 23.2533H22.4523L30.7059 23.2534C30.1695 24.292 29.5247 25.2658 28.782 26.1563H20.9979L4.19638 26.1563ZM15.8126 31.9449L15.8611 31.9467L15.9096 31.9485C16.102 31.9554 16.2949 31.96 16.489 31.96C19.8788 31.96 23.0196 30.886 25.6064 29.06L20.4682 29.06H7.37213C9.78543 30.7638 12.6822 31.8124 15.8126 31.9449Z" fill="#F44336"/>
<path d="M16.1585 0.0078125C7.96492 0.174494 1.28677 6.50074 0.568054 14.5478H16.1587V0.0078125H16.1585Z" fill="#283991"/>
<path d="M3.69935 9.03972L3.94293 9.78818H4.73212L4.09368 10.251L4.33752 11L3.69935 10.5369L3.06137 11L3.30475 10.251L2.6665 9.78818H3.4557L3.69935 9.03972Z" fill="#EFEFEF"/>
<path d="M3.69935 11.684L3.94293 12.4329H4.73212L4.09368 12.8958L4.33752 13.6448L3.69935 13.1817L3.06137 13.6448L3.30475 12.8958L2.6665 12.4329H3.4557L3.69935 11.684Z" fill="#EFEFEF"/>
<path d="M6.34964 5.07233L6.59329 5.82106H7.38222L6.74397 6.28415L6.98762 7.03261L6.34964 6.57006L5.7114 7.03261L5.95504 6.28415L5.31653 5.82106H6.10573L6.34964 5.07233Z" fill="#EFEFEF"/>
<path d="M6.34964 7.71708L6.59329 8.46581H7.38222L6.74397 8.92836L6.98762 9.67737L6.34964 9.21481L5.7114 9.67737L5.95504 8.92836L5.31653 8.46581H6.10573L6.34964 7.71708Z" fill="#EFEFEF"/>
<path d="M6.34964 10.3618L6.59329 11.1108H7.38222L6.74397 11.5731L6.98762 12.3221L6.34964 11.8591L5.7114 12.3221L5.95504 11.5731L5.31653 11.1108H6.10573L6.34964 10.3618Z" fill="#EFEFEF"/>
<path d="M1.68719 12.3221L1.44335 11.5731L2.08159 11.1106H1.29286L1.27518 11.0559C1.18856 11.3232 1.11032 11.5938 1.03815 11.8674L1.04929 11.8591L1.68719 12.3221Z" fill="#EFEFEF"/>
<path d="M3.06135 8.35526L3.69933 7.89223L4.33757 8.35526L4.09372 7.60625L4.73197 7.14323H3.94277L3.69913 6.39477L3.45548 7.14323H3.16464C3.11064 7.22488 3.05838 7.307 3.00586 7.38987L3.3048 7.60625L3.06135 8.35526Z" fill="#EFEFEF"/>
<path d="M6.34966 3.92531L6.98764 4.38786L6.74399 3.6394L7.38197 3.17638H6.92627C6.53923 3.46512 6.16583 3.7707 5.80708 4.09313L5.71088 4.38786L6.34966 3.92531Z" fill="#EFEFEF"/>
<path d="M8.36176 3.06575L9 2.60273L9.63797 3.06575L9.39433 2.31675L10.0323 1.8542H9.24338L9.2103 1.75342C8.94295 1.8897 8.67838 2.03151 8.41981 2.18242L8.60513 2.31669L8.36176 3.06575Z" fill="#EFEFEF"/>
<path d="M8.99997 3.75022L9.24361 4.49848H10.0325L9.39429 4.96151L9.63794 5.71051L8.99997 5.24742L8.36172 5.71051L8.60537 4.96151L7.96692 4.49848H8.75605L8.99997 3.75022Z" fill="#EFEFEF"/>
<path d="M8.99997 6.39497L9.24361 7.14323H10.0325L9.39429 7.60626L9.63794 8.35526L8.99997 7.89217L8.36172 8.35526L8.60537 7.60626L7.96692 7.14323H8.75605L8.99997 6.39497Z" fill="#EFEFEF"/>
<path d="M8.99997 9.03972L9.24361 9.78818H10.0325L9.39429 10.251L9.63794 11L8.99997 10.5369L8.36172 11L8.60537 10.251L7.96692 9.78818H8.75605L8.99997 9.03972Z" fill="#EFEFEF"/>
<path d="M8.99997 11.684L9.24361 12.4329H10.0325L9.39429 12.8958L9.63794 13.6448L8.99997 13.1817L8.36172 13.6448L8.60537 12.8958L7.96692 12.4329H8.75605L8.99997 11.684Z" fill="#EFEFEF"/>
<path d="M11.6503 2.42758L11.8939 3.17631H12.6829L12.0449 3.63941L12.2883 4.38787L11.6503 3.92532L11.0118 4.38787L11.2557 3.63941L10.6172 3.17631H11.4064L11.6503 2.42758Z" fill="#EFEFEF"/>
<path d="M11.6503 5.07233L11.8939 5.82106H12.6829L12.0449 6.28415L12.2883 7.03261L11.6503 6.57006L11.0118 7.03261L11.2557 6.28415L10.6172 5.82106H11.4064L11.6503 5.07233Z" fill="#EFEFEF"/>
<path d="M11.6503 7.71708L11.8939 8.46581H12.6829L12.0449 8.92836L12.2883 9.67737L11.6503 9.21481L11.0118 9.67737L11.2557 8.92836L10.6172 8.46581H11.4064L11.6503 7.71708Z" fill="#EFEFEF"/>
<path d="M11.6503 10.3618L11.8939 11.1108H12.6829L12.0449 11.5731L12.2883 12.3221L11.6503 11.8591L11.0118 12.3221L11.2557 11.5731L10.6172 11.1108H11.4064L11.6503 10.3618Z" fill="#EFEFEF"/>
<path d="M14.3006 1.10547L14.5443 1.8542H15.3332L14.695 2.31675L14.9386 3.06576L14.3006 2.60266L13.6622 3.06576L13.906 2.31675L13.2676 1.8542H14.0565L14.3006 1.10547Z" fill="#EFEFEF"/>
<path d="M14.3006 3.75022L14.5443 4.49848H15.3332L14.695 4.96151L14.9386 5.71051L14.3006 5.24742L13.6622 5.71051L13.906 4.96151L13.2676 4.49848H14.0565L14.3006 3.75022Z" fill="#EFEFEF"/>
<path d="M14.3006 6.39497L14.5443 7.14323H15.3332L14.695 7.60626L14.9386 8.35526L14.3006 7.89217L13.6622 8.35526L13.906 7.60626L13.2676 7.14323H14.0565L14.3006 6.39497Z" fill="#EFEFEF"/>
<path d="M14.3006 9.03972L14.5443 9.78818H15.3332L14.695 10.251L14.9386 11L14.3006 10.5369L13.6622 11L13.906 10.251L13.2676 9.78818H14.0565L14.3006 9.03972Z" fill="#EFEFEF"/>
<path d="M14.3006 11.684L14.5443 12.4329H15.3332L14.695 12.8958L14.9386 13.6448L14.3006 13.1817L13.6622 13.6448L13.906 12.8958L13.2676 12.4329H14.0565L14.3006 11.684Z" fill="#EFEFEF"/>
</svg>

<svg viewBox="0 0 32 32" fill="none" xmlns="http://www.w3.org/2000/svg"><rect x=".5" width="32" height="32" rx="16" fill="#fff"/><path fill-rule="evenodd" clip-rule="evenodd" d="M15.823 0a15.92 15.92 0 0 0-8.297 2.903h18.465A15.922 15.922 0 0 0 17.693 0h-1.87ZM4.398 5.806A15.972 15.972 0 0 0 2.5 8.709h28.517a15.957 15.957 0 0 0-1.898-2.903H4.398ZM.566 14.544c.087-.997.267-1.967.53-2.903h30.786c.263.936.443 1.906.53 2.903H.566Zm.006 2.904c.093.997.28 1.967.547 2.902h30.74c.268-.935.455-1.905.547-2.902H.572Zm3.624 8.708a15.982 15.982 0 0 1-1.924-2.903h28.434a15.978 15.978 0 0 1-1.924 2.903H4.196Zm11.617 5.789.048.002.049.002a15.751 15.751 0 0 0 9.697-2.889H7.371a15.75 15.75 0 0 0 8.44 2.885Z" fill="#F44336"/><path d="M16.159.008C7.964.174 1.287 6.5.569 14.548h15.59V.008Z" fill="#283991"/><path d="m3.7 9.04.243.748h.79l-.64.463.245.749-.639-.463-.638.463.244-.749-.639-.463h.79l.243-.748Zm0 2.644.243.749h.79l-.64.463.245.749-.639-.463-.638.463.244-.75-.639-.462h.79l.243-.749Zm2.65-6.612.243.75h.79l-.639.462.244.749-.638-.463-.639.463.244-.749-.638-.463h.789l.244-.749Zm0 2.645.243.749h.79l-.639.462.244.75-.638-.463-.639.462.244-.749-.638-.462h.789l.244-.749Zm0 2.645.243.749h.79l-.639.462.244.75-.638-.464-.639.463.244-.749-.638-.462h.789l.244-.75Zm-4.663 1.96-.244-.749.639-.462h-.79l-.017-.055a15.74 15.74 0 0 0-.237.811l.011-.008.638.463Zm1.374-3.967.638-.463.639.463-.244-.749.638-.463h-.79L3.7 6.395l-.244.748h-.29l-.16.247.3.216-.244.75Zm3.289-4.43.638.463-.244-.749.638-.463h-.456c-.387.29-.76.595-1.119.917l-.096.295.639-.463Zm2.012-.859L9 2.603l.638.463-.244-.75.638-.462h-.789l-.033-.1c-.267.136-.532.278-.79.428l.185.135-.243.749ZM9 3.75l.244.748h.789l-.639.464.244.749L9 5.247l-.638.464.243-.75-.638-.463h.79L9 3.75Zm0 2.645.244.748h.789l-.639.463.244.75L9 7.891l-.638.463.243-.749-.638-.463h.79L9 6.395ZM9 9.04l.244.748h.789l-.639.463.244.749L9 10.537 8.362 11l.243-.749-.638-.463h.79L9 9.04Zm0 2.644.244.749h.789l-.639.463.244.749L9 13.182l-.638.463.243-.75-.638-.462h.79L9 11.684Zm2.65-9.256.244.748h.789l-.638.463.243.749-.638-.463-.638.463.244-.749-.639-.463h.79l.243-.748Zm0 2.644.244.75h.789l-.638.462.243.749-.638-.463-.638.463.244-.749-.639-.463h.79l.243-.749Zm0 2.645.244.749h.789l-.638.462.243.75-.638-.463-.638.462.244-.749-.639-.462h.79l.243-.749Zm0 2.645.244.749h.789l-.638.462.243.75-.638-.464-.638.463.244-.749-.639-.462h.79l.243-.75Zm2.65-9.257.244.75h.79l-.639.462.244.749-.638-.463-.639.463.244-.75-.638-.462h.788l.245-.749Zm0 2.645.244.748h.79l-.639.464.244.749-.638-.464-.639.464.244-.75-.638-.463h.788l.245-.748Zm0 2.645.244.748h.79l-.639.463.244.75-.638-.464-.639.463.244-.749-.638-.463h.788l.245-.748Zm0 2.645.244.748h.79l-.639.463.244.749-.638-.463-.639.463.244-.749-.638-.463h.788l.245-.748Zm0 2.644.244.749h.79l-.639.463.244.749-.638-.463-.639.463.244-.75-.638-.462h.788l.245-.749Z" fill="#EFEFEF"/></svg>
